img/header/guarantee.svg

<svg width="38" height="38" viewBox="0 0 38 38" fill="none" xmlns="http://www.w3.org/2000/svg">
<g opacity="0.2">
<rect x="1" y="1" width="36" height="36" rx="12" stroke="#1565D8" stroke-width="0.75"/>
</g>
<path fill-rule="evenodd" clip-rule="evenodd" d="M26.7027 12.9349L19.1427 10.2049C19.0505 10.1716 18.9496 10.1716 18.8574 10.2049L11.2974 12.9349C11.1309 12.995 11.02 13.153 11.02 13.3299V18.9999C11.02 23.4524 13.6791 26.407 18.8912 27.8056C18.9634 27.825 19.0395 27.8247 19.1116 27.8048C24.3219 26.3685 26.98 23.4151 26.98 18.9999V13.3299C26.98 13.153 26.8691 12.995 26.7027 12.9349ZM16.1005 18.2653C16.2685 18.1054 16.5344 18.112 16.6943 18.28L18.3933 20.0656L21.9612 16.1953C22.1184 16.0247 22.3841 16.0139 22.5547 16.1711C22.7252 16.3284 22.736 16.5941 22.5788 16.7646L18.707 20.9646C18.5424 21.1431 18.2613 21.1453 18.0939 20.9695L16.0858 18.859C15.9259 18.691 15.9325 18.4252 16.1005 18.2653Z" fill="#1565D8"/>
</svg>

<svg width="38" height="38" fill="none" xmlns="http://www.w3.org/2000/svg"><rect x="1" y="1" width="36" height="36" rx="12" stroke="#1565D8" stroke-width=".75" opacity=".2"/><path fill-rule="evenodd" clip-rule="evenodd" d="M26.703 12.935l-7.56-2.73a.42.42 0 00-.286 0l-7.56 2.73a.42.42 0 00-.277.395V19c0 4.452 2.66 7.407 7.871 8.806a.42.42 0 00.22-.001c5.21-1.436 7.869-4.39 7.869-8.805v-5.67a.42.42 0 00-.277-.395zM16.1 18.265a.42.42 0 01.593.015l1.7 1.786 3.567-3.87a.42.42 0 11.618.569l-3.872 4.2a.42.42 0 01-.613.005l-2.008-2.111a.42.42 0 01.015-.594z" fill="#1565D8"/></svg>
